svg/fluentui-system-icons/ic_fluent_call_prohibited_48_regular.svg

<svg width="48" height="48" viewBox="0 0 48 48" fill="none" xmlns="http://www.w3.org/2000/svg">
<path d="M42.5284 20.7516C45.0078 16.5954 44.3286 10.9204 39.6088 8.60536C35.8458 6.75964 30.5418 5 23.9996 5C17.4575 5 12.1534 6.75964 8.3905 8.60536C3.67068 10.9204 2.99147 16.5954 5.47082 20.7516C6.45515 22.4017 8.30763 23.3306 10.2187 23.1323L13.6497 22.7764C15.808 22.5525 17.6062 21.0238 18.1747 18.9297L19.0046 15.8723C19.215 15.0969 19.6703 14.6453 20.1549 14.532C22.3336 14.0229 25.6528 14.0135 27.8438 14.5286C28.3283 14.6425 28.7839 15.0956 28.9947 15.8723L29.8246 18.9297C30.393 21.0238 32.1912 22.5525 34.3496 22.7764L37.7805 23.1323C39.6916 23.3305 41.5441 22.4017 42.5284 20.7516ZM38.5078 10.8499C41.5555 12.3448 42.3344 16.197 40.3814 19.4708C39.8957 20.2851 38.9815 20.7435 38.0385 20.6456L34.6075 20.2898C33.477 20.1725 32.535 19.3717 32.2373 18.2748L31.4074 15.2174C31.0419 13.8709 30.073 12.4846 28.4159 12.095C25.8436 11.4902 22.1339 11.5022 19.5861 12.0976C17.9284 12.4849 16.9577 13.8696 16.5919 15.2174L15.762 18.2748C15.4642 19.3717 14.5223 20.1725 13.3917 20.2897L9.9608 20.6456C9.01772 20.7435 8.10357 20.2851 7.61783 19.4708C5.66489 16.197 6.44373 12.3448 9.49144 10.8499C12.9862 9.13572 17.9143 7.5 23.9996 7.5C30.085 7.5 35.0131 9.13572 38.5078 10.8499ZM23.9997 44C17.9246 44 12.9997 39.0751 12.9997 33C12.9997 26.9249 17.9246 22 23.9997 22C30.0749 22 34.9997 26.9249 34.9997 33C34.9997 39.0751 30.0749 44 23.9997 44ZM23.9997 41.5C28.6942 41.5 32.4997 37.6944 32.4997 33C32.4997 31.1037 31.8788 29.3525 30.8291 27.9385L18.9382 39.8294C20.3522 40.879 22.1035 41.5 23.9997 41.5ZM29.0613 26.1707C27.6474 25.121 25.8961 24.5 23.9997 24.5C19.3053 24.5 15.4997 28.3056 15.4997 33C15.4997 34.8963 16.1207 36.6476 17.1705 38.0616L29.0613 26.1707Z" fill="#212121"/>
</svg>

<svg xmlns="http://www.w3.org/2000/svg" width="48" height="48"><path d="M42.528 20.752c2.48-4.157 1.8-9.832-2.92-12.147A35.353 35.353 0 0 0 24 5 35.353 35.353 0 0 0 8.39 8.605c-4.72 2.315-5.399 7.99-2.92 12.147a4.935 4.935 0 0 0 4.749 2.38l3.43-.356a5.25 5.25 0 0 0 4.526-3.846l.83-3.058c.21-.775.665-1.227 1.15-1.34 2.179-.51 5.498-.518 7.689-.003.484.114.94.567 1.15 1.343l.83 3.058a5.25 5.25 0 0 0 4.526 3.846l3.43.356a4.936 4.936 0 0 0 4.748-2.38Zm-4.02-9.902c3.047 1.495 3.826 5.347 1.873 8.62a2.435 2.435 0 0 1-2.343 1.176l-3.43-.356a2.75 2.75 0 0 1-2.37-2.015l-.83-3.058c-.366-1.346-1.335-2.732-2.992-3.122-2.572-.605-6.282-.593-8.83.003-1.658.387-2.628 1.772-2.994 3.12l-.83 3.057a2.75 2.75 0 0 1-2.37 2.015l-3.431.356a2.435 2.435 0 0 1-2.343-1.175c-1.953-3.274-1.174-7.126 1.873-8.621A32.853 32.853 0 0 1 24 7.5a32.853 32.853 0 0 1 14.508 3.35ZM24 44c-6.075 0-11-4.925-11-11s4.925-11 11-11 11 4.925 11 11-4.925 11-11 11Zm0-2.5a8.5 8.5 0 0 0 6.83-13.561l-11.892 11.89A8.463 8.463 0 0 0 24 41.5Zm5.061-15.33a8.5 8.5 0 0 0-11.89 11.89l11.89-11.89Z"/></svg>
